dist/assets/images/icons/delivery-issue.svg

<svg width="35" height="35" viewBox="0 0 35 35" fill="none" xmlns="http://www.w3.org/2000/svg">
<path d="M16.7998 12.5998V4.3998C16.7998 3.51607 17.6616 2.7998 18.7248 2.7998H30.2748C31.3374 2.7998 32.1998 3.51607 32.1998 4.3998V10.1331" stroke="#101112" stroke-width="1.16667" stroke-miterlimit="10"/>
<path d="M21.2334 0.58252V4.08252" stroke="#101112" stroke-width="1.16667" stroke-miterlimit="10"/>
<path d="M28 0.58252V4.08252" stroke="#101112" stroke-width="1.16667" stroke-miterlimit="10"/>
<path d="M32.6666 23.916H18.624" stroke="#101112" stroke-width="1.16667" stroke-miterlimit="10"/>
<path d="M21.5717 29.7493H28.5833C28.9992 29.7493 29.3615 29.5306 29.568 29.2028L32.4963 24.5157C32.5827 24.3716 32.6492 24.0922 32.6667 23.916L33.2412 16.4178C33.243 16.3893 33.25 16.3618 33.25 16.3327C33.25 15.6887 32.7273 15.166 32.0833 15.166H20.4167C19.8053 15.166 19.3095 15.6379 19.2599 16.2358L18.6906 23.6086C18.6748 23.8104 18.6072 24.0047 18.4934 24.1721L16.4062 27.262" stroke="#101112" stroke-width="1.16667" stroke-miterlimit="10"/>
<path d="M28.5827 19.8319H30.7259L30.9161 17.4985H21.5827L21.3926 19.8319H25.0827" stroke="#101112" stroke-width="1.16667" stroke-miterlimit="10"/>
<path d="M26.25 19.8325H27.4161" stroke="#101112" stroke-width="1.16667" stroke-miterlimit="10"/>
<path d="M11.6663 13.4165C13.4163 12.8332 13.9997 11.6665 13.9997 10.4998C13.9997 9.33317 13.4163 8.1665 13.4163 8.1665C10.9098 9.51109 10.3597 9.5035 8.45509 9.948C6.92267 10.305 5.83301 11.6671 5.83301 13.2403V16.9118C5.83301 18.5253 7.13617 19.8332 8.74967 19.8332" stroke="#101112" stroke-width="1.16667" stroke-miterlimit="10"/>
<path d="M13.0756 12.6367C13.0978 12.8841 13.4163 16.2674 13.4163 16.5112C13.4163 18.102 12.266 19.4851 10.6688 19.7516L10.0254 19.8327" stroke="#101112" stroke-width="1.16667" stroke-miterlimit="10"/>
<path d="M7 19.2485V21.4955C7 21.9243 6.82967 22.3355 6.52575 22.6395L5.25 23.9152" stroke="#101112" stroke-width="1.16667" stroke-miterlimit="10"/>
<path d="M4.08299 34.416L2.40124 27.3408C2.01041 25.5832 3.34799 23.916 5.14816 23.916H6.38249C7.70141 23.916 8.84358 24.8318 9.12941 26.1198L11.083 34.416" stroke="#101112" stroke-width="1.16667" stroke-miterlimit="10"/>
<path d="M14.583 31.6323V34.4154" stroke="#101112" stroke-width="1.16667" stroke-miterlimit="10"/>
<path d="M12.7055 27.4283L14.1265 30.9814C14.3849 31.626 15.0126 32.0827 15.7493 32.0827C16.0025 32.0827 16.2411 32.0267 16.4581 31.9299L21.571 29.7476C22.3212 29.3241 22.7493 28.7134 22.7493 27.9994C22.7493 27.048 21.9747 26.2494 20.9993 26.2494C20.7462 26.2494 20.507 26.3054 20.2906 26.4022L16.6996 27.9959L15.0383 23.8513C14.9263 23.5719 14.7454 23.3275 14.5156 23.1402L12.1058 21.3295C11.8288 21.1219 11.666 20.7952 11.666 20.4493V19.415" stroke="#101112" stroke-width="1.16667" stroke-miterlimit="10"/>
<path d="M21.875 12.5996H27.125C27.608 12.5996 28 12.2076 28 11.7246L27.3437 8.22461C27.3437 7.74161 26.9517 7.34961 26.4687 7.34961H22.6406C22.1576 7.34961 21.7656 7.74161 21.7656 8.22461L21 11.7246C21 12.2076 21.392 12.5996 21.875 12.5996Z" stroke="#101112" stroke-width="0.98" stroke-miterlimit="10"/>
<path d="M25.8125 7.35011V6.0376C25.8125 5.79566 25.6169 5.6001 25.375 5.6001H23.625C23.3831 5.6001 23.1875 5.79566 23.1875 6.0376V7.35011" stroke="#101112" stroke-width="0.98" stroke-miterlimit="10"/>
</svg>

<svg width="35" height="35" fill="none" xmlns="http://www.w3.org/2000/svg"><path d="M16.8 12.6V4.4c0-.884.862-1.6 1.925-1.6h11.55c1.062 0 1.925.716 1.925 1.6v5.733M21.233.583v3.5M28 .583v3.5m4.667 19.833H18.624m2.948 5.834h7.011c.416 0 .779-.22.985-.547l2.928-4.687c.087-.144.153-.424.17-.6l.575-7.498c.002-.029.009-.056.009-.085 0-.644-.523-1.167-1.167-1.167H20.417c-.612 0-1.108.472-1.157 1.07l-.57 7.373a1.163 1.163 0 01-.197.563l-2.087 3.09" stroke="#101112" stroke-width="1.167" stroke-miterlimit="10"/><path d="M28.583 19.832h2.143l.19-2.334h-9.333l-.19 2.334h3.69m1.167 0h1.166m-15.75-6.416C13.416 12.833 14 11.666 14 10.5c0-1.167-.584-2.334-.584-2.334-2.506 1.345-3.056 1.338-4.96 1.782a3.385 3.385 0 00-2.623 3.292v3.672a2.917 2.917 0 002.917 2.921" stroke="#101112" stroke-width="1.167" stroke-miterlimit="10"/><path d="M13.076 12.637c.022.247.34 3.63.34 3.874a3.288 3.288 0 01-2.747 3.24l-.644.082M7 19.248v2.247c0 .43-.17.84-.474 1.145L5.25 23.915M4.083 34.416l-1.682-7.075a2.814 2.814 0 012.747-3.425h1.234c1.32 0 2.462.916 2.747 2.204l1.954 8.296m3.5-2.784v2.783" stroke="#101112" stroke-width="1.167" stroke-miterlimit="10"/><path d="M12.706 27.428l1.42 3.553a1.749 1.749 0 001.623 1.102c.254 0 .492-.056.71-.153l5.112-2.182c.75-.424 1.178-1.035 1.178-1.749 0-.951-.774-1.75-1.75-1.75a1.73 1.73 0 00-.708.153L16.7 27.996l-1.662-4.145a1.765 1.765 0 00-.522-.71l-2.41-1.811a1.1 1.1 0 01-.44-.88v-1.035" stroke="#101112" stroke-width="1.167" stroke-miterlimit="10"/><path d="M21.875 12.6h5.25a.875.875 0 00.875-.875l-.656-3.5a.875.875 0 00-.875-.875H22.64a.875.875 0 00-.875.875l-.766 3.5c0 .483.392.875.875.875zm3.938-5.25V6.038a.437.437 0 00-.438-.438h-1.75a.437.437 0 00-.438.438V7.35" stroke="#101112" stroke-width=".98" stroke-miterlimit="10"/></svg>
